communes/131.svg

<?xml version="1.0" encoding="UTF-8" standalone="no"?>
<svg
   xmlns:dc="http://purl.org/dc/elements/1.1/"
   xmlns:cc="http://creativecommons.org/ns#"
   xmlns:rdf="http://www.w3.org/1999/02/22-rdf-syntax-ns#"
   xmlns:svg="http://www.w3.org/2000/svg"
   xmlns="http://www.w3.org/2000/svg"
   xmlns:xlink="http://www.w3.org/1999/xlink"
   xmlns:sodipodi="http://sodipodi.sourceforge.net/DTD/sodipodi-0.dtd"
   xmlns:inkscape="http://www.inkscape.org/namespaces/inkscape"
   version="1.0"
   width="208.86046"
   height="244.65999"
   id="svg2780"
   inkscape:version="0.48.0 r9654"
   sodipodi:docname="131.svg">
  <metadata
     id="metadata27">
    <rdf:RDF>
      <cc:Work
         rdf:about="">
        <dc:format>image/svg+xml</dc:format>
        <dc:type
           rdf:resource="http://purl.org/dc/dcmitype/StillImage" />
      </cc:Work>
    </rdf:RDF>
  </metadata>
  <sodipodi:namedview
     pagecolor="#ffffff"
     bordercolor="#666666"
     borderopacity="1"
     objecttolerance="10"
     gridtolerance="10"
     guidetolerance="10"
     inkscape:pageopacity="0"
     inkscape:pageshadow="2"
     inkscape:window-width="1373"
     inkscape:window-height="1042"
     id="namedview25"
     showgrid="false"
     inkscape:zoom="2.1335732"
     inkscape:cx="69.957922"
     inkscape:cy="162.14284"
     inkscape:window-x="0"
     inkscape:window-y="0"
     inkscape:window-maximized="0"
     inkscape:current-layer="svg2780"
     inkscape:document-rotation="0" />
  <defs
     id="defs2782" />
  <g
     transform="translate(-18.805049,-806.25258)"
     id="layer1">
    <path
       d="M 19.805049,807.25258 L 23.566144,965.25562 C 26.252633,1078.1148 220.2179,1078.1148 222.9044,965.25562 L 226.6655,807.25258 L 19.805049,807.25258 z"
       id="path3282"
       style="fill:#2969c4;fill-opacity:1;fill-rule:evenodd;stroke:none;stroke-width:1.99999988;stroke-linecap:butt;stroke-miterlimit:4;stroke-dashoffset:0;stroke-opacity:1" />
    <path
       d="M 124.01575,213.86744 C 124.01575,213.95056 124.01575,214.03369 124.01575,213.86744 z"
       transform="translate(0,804.33069)"
       id="path3793"
       style="fill:none;fill-opacity:0.75;fill-rule:evenodd;stroke:#000000;stroke-width:1px;stroke-linecap:butt;stroke-linejoin:miter;stroke-opacity:1" />
    <path
       d="M 76.352234,51.420082 C 48.132194,48.306309 21.906678,46.755184 30.152961,28.673112 C 39.703442,36.902517 59.714777,41.882789 80.055229,43.837759 L 76.352234,51.420082 z"
       transform="translate(0,804.33069)"
       id="path3857"
       style="opacity:1;fill:#ffef39;fill-opacity:1;fill-rule:evenodd;stroke:#000000;stroke-width:1px;stroke-linecap:butt;stroke-linejoin:round;marker:none;marker-start:none;marker-mid:none;marker-end:none;stroke-miterlimit:4;stroke-dasharray:none;stroke-dashoffset:0;stroke-opacity:1;visibility:visible;display:inline;overflow:visible;enable-background:accumulate" />
    <path
       d="M 70.004242,867.74143 C 51.129857,870.2703 20.84868,874.53818 27.860631,856.98511 C 35.433071,859.92452 52.308787,860.84912 71.414907,860.33543 L 70.004242,867.74143 z"
       id="path3861"
       style="opacity:1;fill:#ffef39;fill-opacity:1;fill-rule:evenodd;stroke:#000000;stroke-width:1px;stroke-linecap:butt;stroke-linejoin:round;marker:none;marker-start:none;marker-mid:none;marker-end:none;stroke-miterlimit:4;stroke-dasharray:none;stroke-dashoffset:0;stroke-opacity:1;visibility:visible;display:inline;overflow:visible;enable-background:accumulate" />
    <path
       d="M 70.356908,880.61375 C 53.262164,890.75413 27.723377,899.06117 29.454109,880.27654 C 29.608311,878.60289 29.638015,878.55219 31.168796,879.1405 C 38.116071,881.8105 53.455605,878.69402 69.475243,871.79708 L 70.356908,880.61375 z"
       id="path3869"
       style="opacity:1;fill:#ffef39;fill-opacity:1;fill-rule:evenodd;stroke:#000000;stroke-width:1px;stroke-linecap:butt;stroke-linejoin:miter;marker:none;marker-start:none;marker-mid:none;marker-end:none;stroke-miterlimit:4;stroke-dasharray:none;stroke-dashoffset:0;stroke-opacity:1;visibility:visible;display:inline;overflow:visible;enable-background:accumulate" />
    <path
       d="M 76.97278,889.67199 C 65.944449,902.74066 39.897849,927.44649 31.031424,907.69833 C 30.343016,906.16504 30.708288,906.03769 32.347413,905.98604 C 39.786406,905.75169 59.151618,894.6359 71.329025,884.18024 L 76.97278,889.67199 z"
       id="path3873"
       style="opacity:1;fill:#ffef39;fill-opacity:1;fill-rule:evenodd;stroke:#000000;stroke-width:1px;stroke-linecap:butt;stroke-linejoin:miter;marker:none;marker-start:none;marker-mid:none;marker-end:none;stroke-miterlimit:4;stroke-dasharray:none;stroke-dashoffset:0;stroke-opacity:1;visibility:visible;display:inline;overflow:visible;enable-background:accumulate" />
    <path
       d="M 89.49593,892.29813 C 83.420723,904.70658 71.27262,929.51994 60.66438,918.27941 C 59.510797,917.05706 60.168557,916.65329 61.573752,915.80782 C 63.900363,914.40796 73.02165,905.51943 80.997276,891.25094 L 89.49593,892.29813 z"
       id="path3877"
       style="opacity:1;fill:#ffef39;fill-opacity:1;fill-rule:evenodd;stroke:#000000;stroke-width:1px;stroke-linecap:butt;stroke-linejoin:miter;marker:none;marker-start:none;marker-mid:none;marker-end:none;stroke-miterlimit:4;stroke-dasharray:none;stroke-dashoffset:0;stroke-opacity:1;visibility:visible;display:inline;overflow:visible;enable-background:accumulate" />
    <path
       d="M 101.52919,888.12754 C 100.1239,901.84096 94.316827,926.44241 83.413721,919.48478 C 81.996879,918.58065 82.475029,918.0674 83.581,916.85652 C 85.412179,914.85165 91.622054,903.73224 95.20054,887.78248 L 101.52919,888.12754 z"
       id="path3881"
       style="opacity:1;fill:#ffef39;fill-opacity:1;fill-rule:evenodd;stroke:#000000;stroke-width:1px;stroke-linecap:butt;stroke-linejoin:miter;marker:none;marker-start:none;marker-mid:none;marker-end:none;stroke-miterlimit:4;stroke-dasharray:none;stroke-dashoffset:0;stroke-opacity:1;visibility:visible;display:inline;overflow:visible;enable-background:accumulate" />
    <use
       transform="matrix(-1,0,0,1,248.65285,0.2493727)"
       id="use3883"
       x="0"
       y="0"
       width="248.03149"
       height="248.03149"
       xlink:href="#path3881" />
    <use
       transform="matrix(-1,0,0,1,248.49184,0.3526662)"
       id="use3879"
       x="0"
       y="0"
       width="248.03149"
       height="248.03149"
       xlink:href="#path3877" />
    <use
       transform="matrix(-1,0,0,1,248.62172,0.3526662)"
       id="use3871"
       x="0"
       y="0"
       width="248.03149"
       height="248.03149"
       xlink:href="#path3869" />
    <use
       transform="matrix(-1,0,0,1,248.91701,0.3526662)"
       id="use3875"
       x="0"
       y="0"
       width="248.03149"
       height="248.03149"
       xlink:href="#path3873" />
    <use
       transform="matrix(-1,0,0,1,248.83048,0.4951844)"
       id="use3865"
       x="0"
       y="0"
       width="248.03149"
       height="248.03149"
       xlink:href="#path3861" />
    <use
       transform="matrix(-1,0,0,1,248.67629,0.5289993)"
       id="use3867"
       x="0"
       y="0"
       width="248.03149"
       height="248.03149"
       xlink:href="#path3857" />
    <path
       d="M 131.45633,37.048935 C 116.62375,37.717605 113.80246,38.04453 108.79752,39.782097 C 104.74193,41.190081 97.188876,42.599713 94.86721,38.988599 C 92.466589,35.25468 95.590283,33.551254 97.071374,35.10927 C 101.53921,39.809154 121.21121,33.223011 131.45633,37.048935 z"
       transform="translate(0,804.33069)"
       id="path3855"
       style="opacity:1;fill:#ffef39;fill-opacity:1;fill-rule:evenodd;stroke:#000000;stroke-width:1px;stroke-linecap:butt;stroke-linejoin:miter;marker:none;marker-start:none;marker-mid:none;marker-end:none;stroke-miterlimit:4;stroke-dasharray:none;stroke-dashoffset:0;stroke-opacity:1;visibility:visible;display:inline;overflow:visible;enable-background:accumulate" />
    <path
       d="M 109.51038,821.3644 C 109.70625,822.52789 111.36595,823.22841 114.46205,822.44059 C 118.97464,821.29234 123.35867,818.74471 127.42943,820.19623 C 123.35867,818.74471 118.97464,821.29234 114.46205,822.44059 C 111.36595,823.22841 109.70625,822.52789 109.51038,821.3644 C 109.36616,820.50771 110.01558,819.4 111.46958,818.45062 C 119.97372,812.8979 134.45438,816.84139 146.8805,830.91926 L 137.15497,827.17867 C 143.02685,832.23152 146.98731,837.9215 147.87799,844.63475 L 141.14493,836.65483 C 144.70365,852.65589 143.4855,865.37286 136.40685,874.06073 C 139.99435,876.37505 143.79627,878.47495 145.13489,883.03814 C 152.21583,878.93907 158.91783,879.57667 165.33408,883.78626 C 160.22974,875.35421 160.63284,868.11295 167.82781,862.34021 C 150.47588,851.00265 163.86487,837.16962 174.81024,831.418 C 186.17601,825.44548 198.37521,827.19474 210.84459,814.58535 C 211.48749,813.93523 213.03337,813.97828 213.83706,815.0841 C 219.44959,822.80657 211.07362,833.53747 195.2588,834.90922 C 190.76952,835.29861 179.788,839.76376 171.56839,843.51258 C 186.50609,865.7003 185.70659,899.26358 155.98261,893.53679 C 152.02345,892.774 148.7361,890.86267 144.88552,890.51932 C 142.94356,924.95106 131.1421,937.23059 122.30843,952.02361 C 110.99782,929.12678 99.41134,909.0237 102.49217,890.76869 C 97.49484,891.19888 93.450163,893.39217 91.270396,893.5118 C 55.454957,895.4775 69.255513,855.98539 77.366035,843.0227 C 68.28143,839.13325 57.385479,834.88348 48.877043,833.41298 C 35.433071,831.08948 29.621377,820.55146 35.433071,814.21129 C 36.175808,813.40101 37.00587,813.13 37.932405,814.18067 C 45.659121,822.9426 59.491339,826.53258 68.078738,828.6749 C 80.338786,831.73345 100.22815,848.32742 81.29549,861.84147 C 86.959044,867.07438 90.040174,873.86416 84.038589,883.53689 C 90.391775,879.86862 96.8984,877.5813 104.23778,882.78877 C 105.40151,878.05067 108.00054,875.65127 111.92952,875.57929 C 110.90822,880.55304 111.67625,885.27942 113.21519,891.26744 C 111.67625,885.27942 110.80294,880.54188 111.92952,875.57929 C 113.13314,870.27736 116.61951,864.71853 124.01575,857.10339 C 125.27107,855.81091 125.7182,852.59296 125.43445,850.74438 C 124.6973,845.942 118.95616,848.06425 114.46205,847.62722 C 117.86548,845.6276 121.08209,843.93434 124.01575,842.63977 C 120.18244,836.79046 115.30053,831.75458 110.55767,828.65977 C 107.19029,826.46249 103.62667,830.61739 102.30071,834.3223 C 98.103139,828.32788 104.04143,822.48898 109.51038,821.3644 z M 121.75801,824.01081 C 121.75801,825.56819 120.49405,826.83214 118.93668,826.83214 C 117.37931,826.83214 116.11535,825.56819 116.11535,824.01081 C 116.11535,822.45344 117.37931,821.18948 118.93668,821.18948 C 120.49405,821.18948 121.75801,822.45344 121.75801,824.01081 z"
       id="path3848"
       style="opacity:1;fill:#ffef39;fill-opacity:1;fill-rule:evenodd;stroke:#000000;stroke-width:0.99921262;stroke-linecap:butt;stroke-linejoin:round;marker:none;marker-start:none;marker-mid:none;marker-end:none;stroke-miterlimit:4;stroke-dasharray:none;stroke-dashoffset:0;stroke-opacity:1;visibility:visible;display:inline;overflow:visible;enable-background:accumulate" />
    <path
       d="M 119.90651,18.622126 A 1.0579987,1.0579987 0 1 1 117.79051,18.622126 A 1.0579987,1.0579987 0 1 1 119.90651,18.622126 z"
       transform="matrix(1.1666667,0,0,1.1666667,-19.631751,801.05067)"
       id="path3853"
       style="opacity:1;fill:#000000;fill-opacity:1;fill-rule:evenodd;stroke:none;stroke-width:1pt;stroke-linecap:butt;stroke-linejoin:miter;marker:none;marker-start:none;marker-mid:none;marker-end:none;stroke-miterlimit:4;stroke-dasharray:none;stroke-dashoffset:0;stroke-opacity:1;visibility:visible;display:inline;overflow:visible;enable-background:accumulate" />
    <path
       d="M 22.59375,120.5 L 23.5625,160.9375 C 26.248988,273.79668 220.21975,273.79668 222.90625,160.9375 L 223.875,120.5 L 22.59375,120.5 z"
       transform="translate(0,804.33069)"
       id="path3885"
       style="opacity:1;fill:#ffef39;fill-opacity:1;fill-rule:evenodd;stroke:#000000;stroke-width:0.99921262;stroke-linecap:butt;stroke-linejoin:miter;marker:none;marker-start:none;marker-mid:none;marker-end:none;stroke-miterlimit:4;stroke-dasharray:none;stroke-dashoffset:0;stroke-opacity:1;visibility:visible;display:inline;overflow:visible;enable-background:accumulate" />
    <path
       d="M 31.126387,935.27065 C 31.073356,942.33808 32.065937,949.33347 33.406067,956.22985 L 44.831603,945.39601 C 47.256891,962.52871 54.328716,978.01223 64.588824,990.26641 L 48.658208,991.12249 C 54.037895,998.79009 60.486861,1005.6065 67.791231,1011.3141 L 71.400723,997.49876 C 83.416527,1008.7938 98.578543,1016.2294 115.25741,1018.0447 L 107.6042,1029.1442 C 117.96976,1031.1007 128.49758,1030.8028 138.86838,1029.1442 L 131.21516,1018.0447 C 147.89695,1016.2308 163.05488,1008.8005 175.07185,997.49876 L 178.68135,1011.3141 C 185.98571,1005.6065 192.43469,998.78999 197.81437,991.12249 L 181.88375,990.26641 C 192.14311,978.01285 199.21548,962.52882 201.64098,945.39601 L 213.06651,956.22985 C 214.65321,949.36928 215.17716,942.31939 215.34619,935.27065 L 127.90421,935.27065 L 127.90421,944.45137 L 118.56837,944.45137 L 118.56837,935.27065 L 31.126387,935.27065 z M 56.935615,945.39601 L 109.44965,945.39601 L 73.354734,981.46945 C 65.05888,971.542 59.233079,959.13726 56.935615,945.39601 z M 136.99578,945.39601 L 189.50982,945.39601 C 187.20442,959.13725 181.38525,971.54344 173.0907,981.46945 L 136.99578,945.39601 z M 127.98562,950.44393 L 166.19739,988.64281 C 155.67471,998.13366 142.45588,1004.191 127.98562,1005.292 L 127.98562,950.44393 z M 118.45981,950.47345 L 118.45981,1005.292 C 104.00031,1004.1857 90.792539,998.12912 80.275189,988.64281 L 118.45981,950.47345 z"
       id="rect3004"
       style="opacity:1;fill:#2969c4;fill-opacity:1;fill-rule:evenodd;stroke:#000000;stroke-width:1.00000012px;stroke-linecap:butt;stroke-linejoin:miter;marker:none;marker-start:none;marker-mid:none;marker-end:none;stroke-miterlimit:4;stroke-dasharray:none;stroke-dashoffset:0;stroke-opacity:1;visibility:visible;display:inline;overflow:visible;enable-background:accumulate" />
    <path
       d="M 19.805049,807.25258 L 23.566144,965.25562 C 26.252633,1078.1148 220.2179,1078.1148 222.9044,965.25562 L 226.6655,807.25258 L 19.805049,807.25258 z"
       id="path4212"
       style="fill:none;fill-opacity:1;fill-rule:evenodd;stroke:#000000;stroke-width:1.99999988;stroke-linecap:butt;stroke-miterlimit:4;stroke-dashoffset:0;stroke-opacity:1" />
  </g>
  <path
     style="fill:#d40000;fill-opacity:1;stroke:none"
     d="m 79.156781,38.617278 c -1.759589,-0.411831 -3.066782,-1.733953 -3.489111,-3.528957 -0.198792,-0.844917 0.271868,-1.808015 0.969083,-1.983004 0.408687,-0.102574 0.851197,0.05867 1.589846,0.579318 2.399372,1.691233 5.427807,1.949836 14.636591,1.249839 9.52622,-0.724126 10.23632,-0.741023 10.67701,-0.254058 0.34221,0.378134 0.30528,0.415861 -0.5261,0.537405 -0.49177,0.0719 -1.79052,0.195195 -2.8861,0.273998 -3.352794,0.241158 -6.305899,0.78938 -9.426147,1.749892 -5.034457,1.549766 -8.855576,2.005043 -11.545072,1.375567 l 0,0 z"
     id="path3018"
     inkscape:connector-curvature="0" />
</svg>

<?xml version="1.0" encoding="UTF-8"?>
<svg version="1.0" viewBox="0 0 208.86 244.66" xmlns="http://www.w3.org/2000/svg" xmlns:cc="http://creativecommons.org/ns#" xmlns:dc="http://purl.org/dc/elements/1.1/" xmlns:rdf="http://www.w3.org/1999/02/22-rdf-syntax-ns#" xmlns:xlink="http://www.w3.org/1999/xlink">
<metadata>
<rdf:RDF>
<cc:Work rdf:about="">
<dc:format>image/svg+xml</dc:format>
<dc:type rdf:resource="http://purl.org/dc/dcmitype/StillImage"/>
</cc:Work>
</rdf:RDF>
</metadata>
<g transform="translate(-18.805 -806.25)">
<path d="m19.805 807.25 3.7611 158c2.6865 112.86 196.65 112.86 199.34 0l3.7611-158h-206.86z" fill="#2969c4" fill-rule="evenodd"/>
<path transform="translate(0 804.33)" d="m124.02 213.87v0z" fill="none" stroke="#000" stroke-width="1px"/>
<path id="f" transform="translate(0 804.33)" d="m76.352 51.42c-28.22-3.1138-54.446-4.6649-46.199-22.747 9.5505 8.2294 29.562 13.21 49.902 15.165l-3.703 7.5823z" fill="#ffef39" fill-rule="evenodd" stroke="#000" stroke-linejoin="round" stroke-width="1px"/>
<path id="e" d="m70.004 867.74c-18.874 2.5289-49.156 6.7968-42.144-10.756 7.5724 2.9394 24.448 3.864 43.554 3.3503l-1.4107 7.406z" fill="#ffef39" fill-rule="evenodd" stroke="#000" stroke-linejoin="round" stroke-width="1px"/>
<path id="d" d="m70.357 880.61c-17.095 10.14-42.634 18.447-40.903-0.33721 0.1542-1.6736 0.18391-1.7244 1.7147-1.136 6.9473 2.67 22.287-0.44648 38.306-7.3434l0.88166 8.8167z" fill="#ffef39" fill-rule="evenodd" stroke="#000" stroke-width="1px"/>
<path id="c" d="m76.973 889.67c-11.028 13.069-37.075 37.774-45.941 18.026-0.68841-1.5333-0.32314-1.6606 1.316-1.7123 7.439-0.23435 26.804-11.35 38.982-21.806l5.6438 5.4918z" fill="#ffef39" fill-rule="evenodd" stroke="#000" stroke-width="1px"/>
<path id="b" d="m89.496 892.3c-6.0752 12.408-18.223 37.222-28.832 25.981-1.1536-1.2224-0.49582-1.6261 0.90937-2.4716 2.3266-1.3999 11.448-10.288 19.424-24.557l8.4987 1.0472z" fill="#ffef39" fill-rule="evenodd" stroke="#000" stroke-width="1px"/>
<path id="a" d="m101.53 888.13c-1.4053 13.713-7.2124 38.315-18.115 31.357-1.4168-0.90413-0.93869-1.4174 0.16728-2.6283 1.8312-2.0049 8.0411-13.124 11.62-29.074l6.3286 0.34506z" fill="#ffef39" fill-rule="evenodd" stroke="#000" stroke-width="1px"/>
<use transform="matrix(-1 0 0 1 248.65 .24937)" width="248.03149" height="248.03149" xlink:href="#a"/>
<use transform="matrix(-1 0 0 1 248.49 .35267)" width="248.03149" height="248.03149" xlink:href="#b"/>
<use transform="matrix(-1 0 0 1 248.62 .35267)" width="248.03149" height="248.03149" xlink:href="#d"/>
<use transform="matrix(-1 0 0 1 248.92 .35267)" width="248.03149" height="248.03149" xlink:href="#c"/>
<use transform="matrix(-1 0 0 1 248.83 .49518)" width="248.03149" height="248.03149" xlink:href="#e"/>
<use transform="matrix(-1 0 0 1 248.68 .529)" width="248.03149" height="248.03149" xlink:href="#f"/>
<path transform="translate(0 804.33)" d="m131.46 37.049c-14.833 0.66867-17.654 0.9956-22.659 2.7332-4.0556 1.408-11.609 2.8176-13.93-0.7935-2.4006-3.7339 0.72307-5.4373 2.2042-3.8793 4.4678 4.6999 24.14-1.8863 34.385 1.9397z" fill="#ffef39" fill-rule="evenodd" stroke="#000" stroke-width="1px"/>
<path d="m109.51 821.36c0.19587 1.1635 1.8556 1.864 4.9517 1.0762 4.5126-1.1482 8.8966-3.6959 12.967-2.2444-4.0708-1.4515-8.4548 1.0961-12.967 2.2444-3.0961 0.78782-4.7558 0.0873-4.9517-1.0762-0.14422-0.85669 0.5052-1.9644 1.9592-2.9138 8.5041-5.5527 22.985-1.6092 35.411 12.469l-9.7255-3.7406c5.8719 5.0528 9.8323 10.743 10.723 17.456l-6.7331-7.9799c3.5587 16.001 2.3406 28.718-4.7381 37.406 3.5875 2.3143 7.3894 4.4142 8.728 8.9774 7.0809-4.0991 13.783-3.4615 20.199 0.74812-5.1043-8.432-4.7012-15.673 2.4937-21.446-17.352-11.338-3.9629-25.171 6.9824-30.922 11.366-5.9725 23.565-4.2233 36.034-16.833 0.6429-0.65012 2.1888-0.60707 2.9925 0.49875 5.6125 7.7225-2.7634 18.453-18.578 19.825-4.4893 0.38939-15.471 4.8545-23.69 8.6034 14.938 22.188 14.138 55.751-15.586 50.024-3.9592-0.76279-7.2465-2.6741-11.097-3.0175-1.942 34.432-13.743 46.711-22.577 61.504-11.311-22.897-22.897-43-19.816-61.255-4.9973 0.43019-9.042 2.6235-11.222 2.7431-35.815 1.9657-22.015-37.526-13.904-50.489-9.0846-3.8894-19.981-8.1392-28.489-9.6097-13.444-2.3235-19.256-12.862-13.444-19.202 0.74274-0.81028 1.5728-1.0813 2.4993-0.03062 7.7267 8.7619 21.559 12.352 30.146 14.494 12.26 3.0586 32.149 19.653 13.217 33.167 5.6636 5.2329 8.7447 12.023 2.7431 21.695 6.3532-3.6683 12.86-5.9556 20.199-0.74812 1.1637-4.7381 3.7628-7.1375 7.6917-7.2095-1.0213 4.9738-0.25327 9.7001 1.2857 15.688-1.5389-5.988-2.4122-10.726-1.2857-15.688 1.2036-5.3019 4.69-10.861 12.086-18.476 1.2553-1.2925 1.7024-4.5104 1.4187-6.359-0.73715-4.8024-6.4783-2.6801-10.972-3.1172 3.4034-1.9996 6.62-3.6929 9.5537-4.9874-3.8333-5.8493-8.7152-10.885-13.458-13.98-3.3674-2.1973-6.931 1.9576-8.257 5.6625-4.1976-5.9944 1.7407-11.833 7.2097-12.958zm12.248 2.6464c0 1.5574-1.264 2.8213-2.8213 2.8213s-2.8213-1.264-2.8213-2.8213c0-1.5574 1.264-2.8213 2.8213-2.8213s2.8213 1.264 2.8213 2.8213z" fill="#ffef39" fill-rule="evenodd" stroke="#000" stroke-linejoin="round" stroke-width=".99921"/>
<path transform="matrix(1.1667 0 0 1.1667 -19.632 801.05)" d="m119.91 18.622a1.058 1.058 0 1 1-2.116 0 1.058 1.058 0 1 1 2.116 0z" fill-rule="evenodd"/>
<path transform="translate(0 804.33)" d="m22.594 120.5 0.96875 40.438c2.6865 112.86 196.66 112.86 199.34 0l0.96875-40.438h-201.28z" fill="#ffef39" fill-rule="evenodd" stroke="#000" stroke-width=".99921"/>
<path d="m31.126 935.27c-0.053031 7.0674 0.93955 14.063 2.2797 20.959l11.426-10.834c2.4253 17.133 9.4971 32.616 19.757 44.87l-15.931 0.85608c5.3797 7.6676 11.829 14.484 19.133 20.192l3.6095-13.815c12.016 11.295 27.178 18.731 43.857 20.546l-7.6532 11.1c10.366 1.9565 20.893 1.6586 31.264 0l-7.6532-11.1c16.682-1.8139 31.84-9.2442 43.857-20.546l3.6095 13.815c7.3044-5.7076 13.753-12.524 19.133-20.192l-15.931-0.85608c10.259-12.254 17.332-27.738 19.757-44.87l11.426 10.834c1.5867-6.8606 2.1106-13.91 2.2797-20.959h-87.442v9.1807h-9.3358v-9.1807h-87.442zm25.809 10.125h52.514l-36.095 36.073c-8.2959-9.9274-14.122-22.332-16.419-36.073zm80.06 0h52.514c-2.3054 13.741-8.1246 26.147-16.419 36.073l-36.095-36.073zm-9.0102 5.0479 38.212 38.199c-10.523 9.4908-23.742 15.548-38.212 16.649v-54.848zm-9.5258 0.02952v54.819c-14.46-1.1063-27.667-7.1629-38.185-16.649l38.185-38.169z" fill="#2969c4" fill-rule="evenodd" stroke="#000" stroke-width="1px"/>
<path d="m19.805 807.25 3.7611 158c2.6865 112.86 196.65 112.86 199.34 0l3.7611-158h-206.86z" fill="none" stroke="#000" stroke-width="2"/>
</g>
<path d="m79.157 38.617c-1.7596-0.41183-3.0668-1.734-3.4891-3.529-0.19879-0.84492 0.27187-1.808 0.96908-1.983 0.40869-0.10257 0.8512 0.05867 1.5898 0.57932 2.3994 1.6912 5.4278 1.9498 14.637 1.2498 9.5262-0.72413 10.236-0.74102 10.677-0.25406 0.34221 0.37813 0.30528 0.41586-0.5261 0.5374-0.49177 0.0719-1.7905 0.1952-2.8861 0.274-3.3528 0.24116-6.3059 0.78938-9.4261 1.7499-5.0345 1.5498-8.8556 2.005-11.545 1.3756z" fill="#d40000"/>
</svg>
